X:376
T:Killiechassie
R:Strathspey
B:The Athole Collection
M:C
L:1/8
K:G
g|d<G d>B G>AB>g|d<G e/d/c/B/ c<A A>g|d<G d>B G>A B<g|
b/a/g/f/ g>e d<BB:|
b|g>d B<b g>d B<b|g>d e/d/c/B/ c<A A>b|g>D B<g d<gB<g|
e<B g>e d<BB<b|g>d B<g e<gd<g|c<gB<g c<A AB/c/|d<Ge<B g<B a>f|
b/a/g/f/ g>e d<BB||

